X: 28751
T: My Home From Afar
R: reel
M: 4/4
K: Gdorian
(3DEF|:G2 FD CDE^F|G2 DG =B,GDG|F2 CF A,CFG|AG^FD dcAF|
GEFD CDE^F|G2 DG B,GDG|FEFG AGAB|cAdc AG G2:|
|:BABd c2 =Bc|dG (3GGG FDCF|DG,B,G, (3A,B,C DE|F2 AG ^FDEF|
G2 DG =B,GDG|FA,CF ABcA|d=BcA (3_BcB AG|FDCF DG G2:|

